;FLAVOR:UltiGCode
;TIME:1174
;MATERIAL:1060
;MATERIAL2:0
;NOZZLE_DIAMETER:0.4
;MINX:95.022
;MINY:30.44
;MINZ:0.27
;MAXX:122.475
;MAXY:60.094
;MAXZ:16.27
;Generated with Cura_SteamEngine 4.9.1
M82 ;absolute extrusion mode
G0 F3000 Y50 ;avoid prime blob
G92 E0
G92 E0
G10
;LAYER_COUNT:161
;LAYER:0
M107
G0 F4320 X95.984 Y40.419 Z0.27
;TYPE:SKIRT
G11
G1 F1800 X96.273 Y39.795 E0.06499
G1 X96.558 Y39.261 E0.12219
G1 X96.877 Y38.73 E0.18072
G1 X97.225 Y38.21 E0.23985
G1 X97.543 Y37.781 E0.29032
G1 X97.884 Y37.365 E0.34115
G1 X98.387 Y36.809 E0.412
G1 X98.871 Y36.332 E0.47622
G1 X99.422 Y35.851 E0.54534
G1 X99.94 Y35.451 E0.60718
G1 X100.176 Y35.284 E0.6345
G1 X100.697 Y34.945 E0.69324
G1 X101.409 Y34.538 E0.77074
G1 X101.976 Y34.254 E0.83067
G1 X102.495 Y34.027 E0.8842
G1 X102.723 Y33.936 E0.9074
G1 X103.221 Y33.756 E0.95744
G1 X103.83 Y33.571 E1.01759
G1 X104.266 Y33.164 E1.07395
G1 X104.434 Y33.018 E1.09499
G1 X104.962 Y32.598 E1.15874
G1 X105.15 Y32.461 E1.18073
G1 X105.736 Y32.072 E1.24719
G1 X106.031 Y31.895 E1.27971
G1 X106.661 Y31.555 E1.34736
G1 X106.86 Y31.459 E1.36824
G1 X107.587 Y31.153 E1.44278
G1 X107.889 Y31.043 E1.47315
G1 X108.634 Y30.812 E1.54686
G1 X108.951 Y30.731 E1.57778
G1 X109.817 Y30.561 E1.66118
G1 X110.112 Y30.52 E1.68932
G1 X110.868 Y30.452 E1.76105
G1 X111.084 Y30.443 E1.78148
G1 X111.668 Y30.44 E1.83667
G1 X112.248 Y30.468 E1.89154
G1 X112.891 Y30.532 E1.95261
G1 X113.135 Y30.566 E1.97589
G1 X113.85 Y30.7 E2.04463
G1 X114.542 Y30.876 E2.11211
G1 X114.754 Y30.939 E2.13301
G1 X115.459 Y31.186 E2.2036
G1 X115.781 Y31.316 E2.23642
G1 X116.675 Y31.744 E2.33008
G1 X116.972 Y31.91 E2.36223
G1 X117.482 Y32.221 E2.41868
G1 X117.666 Y32.343 E2.43955
G1 X118.196 Y32.727 E2.5014
G1 X118.42 Y32.904 E2.52837
G1 X118.906 Y33.321 E2.58889
G1 X119.111 Y33.512 E2.61537
G1 X119.777 Y34.213 E2.70674
G1 X120.183 Y34.717 E2.7679
G1 X120.507 Y35.159 E2.81969
G1 X120.89 Y35.75 E2.88624
G1 X121.044 Y36.013 E2.91504
G1 X121.41 Y36.717 E2.99003
G1 X121.533 Y36.986 E3.01798
G1 X121.825 Y37.719 E3.09254
G1 X121.929 Y38.024 E3.12299
G1 X122.119 Y38.673 E3.1869
G1 X122.198 Y38.992 E3.21795
G1 X122.364 Y39.873 E3.30267
G1 X122.392 Y40.089 E3.32326
G1 X122.444 Y40.644 E3.37593
G1 X122.463 Y40.971 E3.40689
G1 X122.475 Y41.579 E3.46435
G1 X122.448 Y42.2 E3.52309
G1 X122.37 Y42.932 E3.59266
G1 X122.322 Y43.244 E3.62249
G1 X122.166 Y44.006 E3.69599
G1 X122.1 Y44.263 E3.72107
G1 X121.91 Y44.894 E3.78334
G1 X121.757 Y45.314 E3.82558
G1 X121.787 Y45.392 E3.83348
G1 X122.068 Y46.284 E3.92186
G1 X122.158 Y46.643 E3.95683
G1 X122.329 Y47.545 E4.04359
G1 X122.363 Y47.807 E4.06856
G1 X122.418 Y48.422 E4.12691
G1 X122.43 Y48.659 E4.14933
G1 X122.436 Y49.294 E4.20934
G1 X122.425 Y49.659 E4.24385
G1 X122.355 Y50.496 E4.32322
G1 X122.321 Y50.743 E4.34678
G1 X122.184 Y51.479 E4.41753
G1 X122.034 Y52.07 E4.47515
G1 X121.974 Y52.276 E4.49543
G1 X121.783 Y52.849 E4.5525
G1 X121.69 Y53.096 E4.57745
G1 X121.469 Y53.624 E4.63154
G1 X121.175 Y54.227 E4.69493
G1 X121.079 Y54.406 E4.71413
G1 X120.708 Y55.027 E4.78249
G1 X120.552 Y55.263 E4.80922
G1 X120.175 Y55.785 E4.87007
G1 X119.977 Y56.037 E4.90035
G1 X119.51 Y56.579 E4.96796
G1 X119.323 Y56.777 E4.9937
G1 X118.691 Y57.376 E5.07599
G1 X118.52 Y57.521 E5.09717
G1 X118.057 Y57.885 E5.15283
G1 X117.841 Y58.042 E5.17806
G1 X117.266 Y58.423 E5.24325
G1 X116.973 Y58.599 E5.27555
G1 X116.254 Y58.982 E5.35253
G1 X115.627 Y59.261 E5.41738
G1 X115.397 Y59.353 E5.44079
G1 X114.86 Y59.545 E5.49469
G1 X114.596 Y59.629 E5.52087
G1 X113.979 Y59.798 E5.58132
G1 X113.758 Y59.849 E5.60275
G1 X112.988 Y59.987 E5.67668
G1 X112.396 Y60.053 E5.73297
G1 X112.149 Y60.072 E5.75638
G1 X111.448 Y60.094 E5.82266
G1 X111.123 Y60.09 E5.85337
G1 X110.398 Y60.048 E5.922
G1 X109.878 Y59.987 E5.97148
G1 X109.282 Y59.884 E6.02863
G1 X109.073 Y59.84 E6.04882
G1 X108.579 Y59.719 E6.09688
G1 X108.013 Y59.549 E6.15273
G1 X107.813 Y59.481 E6.17269
G1 X107.132 Y59.213 E6.24185
G1 X106.866 Y59.094 E6.26939
G1 X106.203 Y58.759 E6.33958
G1 X105.915 Y58.596 E6.37086
G1 X105.266 Y58.186 E6.4434
G1 X105.017 Y58.011 E6.47216
G1 X104.448 Y57.571 E6.54013
G1 X103.883 Y57.062 E6.612
G1 X103.5 Y56.683 E6.66291
G1 X103.416 Y56.591 E6.67469
G1 X102.863 Y56.407 E6.72976
G1 X102.286 Y56.177 E6.78846
G1 X102.048 Y56.071 E6.81308
G1 X101.573 Y55.84 E6.863
G1 X101.096 Y55.581 E6.91429
G1 X100.918 Y55.478 E6.93372
G1 X100.473 Y55.2 E6.98331
G1 X99.904 Y54.804 E7.04882
G1 X99.708 Y54.656 E7.07203
G1 X99.246 Y54.279 E7.12838
G1 X98.74 Y53.823 E7.19275
G1 X98.36 Y53.448 E7.2432
G1 X97.888 Y52.934 E7.30914
G1 X97.454 Y52.403 E7.37395
G1 X97.078 Y51.88 E7.43482
G1 X96.923 Y51.647 E7.46127
G1 X96.606 Y51.127 E7.51882
G1 X96.473 Y50.889 E7.54458
G1 X96.239 Y50.437 E7.59268
G1 X95.96 Y49.823 E7.65641
G1 X95.861 Y49.582 E7.68104
G1 X95.67 Y49.067 E7.73294
G1 X95.558 Y48.729 E7.76659
G1 X95.373 Y48.079 E7.83046
G1 X95.245 Y47.514 E7.8852
G1 X95.144 Y46.923 E7.94186
G1 X95.078 Y46.373 E7.99421
G1 X95.027 Y45.637 E8.06393
G1 X95.022 Y44.986 E8.12545
G1 X95.051 Y44.319 E8.18854
G1 X95.102 Y43.748 E8.24271
G1 X95.201 Y43.06 E8.3084
G1 X95.326 Y42.439 E8.36826
G1 X95.392 Y42.168 E8.39462
G1 X95.527 Y41.679 E8.44256
G1 X95.619 Y41.385 E8.47167
G1 X95.849 Y40.748 E8.53567
G1 X95.984 Y40.419 E8.56928
G0 F4320 X96.308 Y40.551
G1 F1800 X96.584 Y39.956 E8.63126
G1 X96.861 Y39.436 E8.68694
G1 X97.174 Y38.915 E8.74437
G1 X97.513 Y38.408 E8.80201
G1 X97.817 Y37.999 E8.85016
G1 X98.147 Y37.595 E8.89946
G1 X98.637 Y37.055 E8.96837
G1 X99.108 Y36.59 E9.03091
G1 X99.647 Y36.119 E9.09856
G1 X100.142 Y35.736 E9.1577
G1 X100.378 Y35.569 E9.18502
G1 X100.876 Y35.246 E9.24112
G1 X101.57 Y34.849 E9.31667
G1 X102.123 Y34.572 E9.37512
G1 X102.625 Y34.352 E9.42691
G1 X102.853 Y34.261 E9.45011
G1 X103.329 Y34.089 E9.49794
G1 X103.95 Y33.9 E9.55928
G1 X104.011 Y33.884 E9.56524
G1 X104.496 Y33.428 E9.62815
G1 X104.664 Y33.282 E9.64918
G1 X105.168 Y32.88 E9.71011
G1 X105.356 Y32.743 E9.73209
G1 X105.916 Y32.372 E9.79557
G1 X106.211 Y32.195 E9.82808
G1 X106.813 Y31.87 E9.89273
G1 X107.012 Y31.774 E9.91361
G1 X107.707 Y31.481 E9.98489
G1 X108.009 Y31.371 E10.01526
G1 X108.721 Y31.151 E10.08568
G1 X109.038 Y31.07 E10.1166
G1 X109.865 Y30.908 E10.19624
G1 X110.16 Y30.867 E10.22438
G1 X110.883 Y30.802 E10.29298
G1 X111.099 Y30.793 E10.31341
G1 X111.657 Y30.79 E10.36614
G1 X112.22 Y30.816 E10.4194
G1 X112.843 Y30.879 E10.47858
G1 X113.087 Y30.913 E10.50186
G1 X113.77 Y31.041 E10.56752
G1 X114.443 Y31.212 E10.63314
G1 X114.655 Y31.275 E10.65404
G1 X115.328 Y31.51 E10.72141
G1 X115.65 Y31.64 E10.75422
G1 X116.504 Y32.049 E10.8437
G1 X116.801 Y32.215 E10.87586
G1 X117.288 Y32.512 E10.92976
G1 X117.472 Y32.634 E10.95063
G1 X117.979 Y33.002 E11.00983
G1 X118.203 Y33.179 E11.03681
G1 X118.668 Y33.577 E11.09465
G1 X118.873 Y33.768 E11.12112
G1 X119.509 Y34.438 E11.20842
G1 X119.907 Y34.932 E11.26837
G1 X120.222 Y35.362 E11.31874
G1 X120.588 Y35.927 E11.38236
G1 X120.742 Y36.19 E11.41116
G1 X121.092 Y36.863 E11.48285
G1 X121.215 Y37.132 E11.5108
G1 X121.493 Y37.832 E11.58197
G1 X121.597 Y38.137 E11.61243
G1 X121.779 Y38.757 E11.67349
G1 X121.858 Y39.076 E11.70454
G1 X122.017 Y39.918 E11.78552
G1 X122.045 Y40.134 E11.8061
G1 X122.094 Y40.665 E11.85649
G1 X122.113 Y40.992 E11.88745
G1 X122.125 Y41.573 E11.94236
G1 X122.099 Y42.179 E11.99968
G1 X122.024 Y42.879 E12.06621
G1 X121.976 Y43.191 E12.09604
G1 X121.827 Y43.919 E12.16627
G1 X121.761 Y44.176 E12.19134
G1 X121.579 Y44.779 E12.25086
G1 X121.383 Y45.315 E12.30479
G1 X121.46 Y45.517 E12.32522
G1 X121.728 Y46.369 E12.40963
G1 X121.818 Y46.728 E12.4446
G1 X121.981 Y47.59 E12.5275
G1 X122.015 Y47.852 E12.55247
G1 X122.068 Y48.439 E12.60817
G1 X122.08 Y48.676 E12.63059
G1 X122.087 Y49.284 E12.68805
G1 X122.076 Y49.649 E12.72256
G1 X122.009 Y50.448 E12.79833
G1 X121.975 Y50.695 E12.82189
G1 X121.844 Y51.399 E12.88956
G1 X121.698 Y51.972 E12.94544
G1 X121.638 Y52.178 E12.96572
G1 X121.455 Y52.726 E13.02032
G1 X121.362 Y52.973 E13.04526
G1 X121.151 Y53.477 E13.09689
G1 X120.866 Y54.062 E13.15838
G1 X120.77 Y54.241 E13.17758
G1 X120.416 Y54.834 E13.24284
G1 X120.26 Y55.07 E13.26958
G1 X119.9 Y55.569 E13.32772
G1 X119.702 Y55.821 E13.35801
G1 X119.256 Y56.339 E13.4226
G1 X119.069 Y56.537 E13.44834
G1 X118.465 Y57.109 E13.52695
G1 X118.294 Y57.254 E13.54814
G1 X117.851 Y57.602 E13.60138
G1 X117.635 Y57.759 E13.62661
G1 X117.086 Y58.123 E13.68886
G1 X116.793 Y58.299 E13.72116
G1 X116.105 Y58.665 E13.7948
G1 X115.497 Y58.936 E13.85771
G1 X115.267 Y59.028 E13.88111
G1 X114.754 Y59.212 E13.93262
G1 X114.49 Y59.296 E13.9588
G1 X113.9 Y59.457 E14.01659
G1 X113.679 Y59.508 E14.03802
G1 X112.944 Y59.64 E14.10859
G1 X112.369 Y59.704 E14.16327
G1 X112.122 Y59.723 E14.18668
G1 X111.452 Y59.744 E14.25002
G1 X111.127 Y59.74 E14.28074
G1 X110.434 Y59.7 E14.34634
G1 X109.929 Y59.64 E14.39439
G1 X109.354 Y59.542 E14.44951
G1 X108.673 Y59.382 E14.51562
G1 X108.126 Y59.217 E14.56961
G1 X107.926 Y59.149 E14.58958
G1 X107.275 Y58.894 E14.65565
G1 X107.009 Y58.775 E14.68318
G1 X106.376 Y58.455 E14.75021
G1 X106.088 Y58.292 E14.78148
G1 X105.467 Y57.9 E14.85088
G1 X105.218 Y57.725 E14.87964
G1 X104.675 Y57.304 E14.94457
G1 X104.12 Y56.805 E15.0151
G1 X103.754 Y56.443 E15.06375
G1 X103.614 Y56.287 E15.08356
G1 X102.98 Y56.077 E15.14667
G1 X102.428 Y55.857 E15.20283
G1 X102.19 Y55.751 E15.22745
G1 X101.737 Y55.531 E15.27504
G1 X101.271 Y55.278 E15.32515
G1 X101.093 Y55.175 E15.34458
G1 X100.668 Y54.91 E15.39191
G1 X100.114 Y54.524 E15.45572
G1 X99.918 Y54.376 E15.47893
G1 X99.477 Y54.016 E15.53272
G1 X98.983 Y53.571 E15.59555
G1 X98.612 Y53.206 E15.64474
G1 X98.149 Y52.701 E15.70948
G1 X97.735 Y52.194 E15.77134
G1 X97.37 Y51.686 E15.83045
G1 X97.215 Y51.453 E15.8569
G1 X96.911 Y50.956 E15.91195
G1 X96.555 Y50.286 E15.98365
G1 X96.283 Y49.69 E16.04556
G1 X96.184 Y49.449 E16.07018
G1 X96.002 Y48.957 E16.11975
G1 X95.89 Y48.619 E16.1534
G1 X95.713 Y47.998 E16.21442
G1 X95.589 Y47.447 E16.2678
G1 X95.49 Y46.869 E16.32321
G1 X95.427 Y46.344 E16.37318
G1 X95.377 Y45.626 E16.4412
G1 X95.372 Y44.989 E16.50139
G1 X95.401 Y44.339 E16.56288
G1 X95.451 Y43.785 E16.61545
G1 X95.546 Y43.115 E16.67939
G1 X95.666 Y42.521 E16.73666
G1 X95.861 Y41.784 E16.8087
G1 X95.953 Y41.49 E16.83782
G1 X96.173 Y40.88 E16.8991
G1 X96.308 Y40.551 E16.9327
G0 F4320 X96.632 Y40.684
G1 F1800 X96.895 Y40.116 E16.99185
G1 X97.164 Y39.611 E17.04592
G1 X97.472 Y39.1 E17.10231
G1 X97.802 Y38.607 E17.15837
G1 X98.203 Y38.075 E17.22132
G1 X98.587 Y37.623 E17.27737
G1 X99.086 Y37.097 E17.34589
G1 X99.454 Y36.747 E17.39388
G1 X99.872 Y36.387 E17.44601
G1 X100.344 Y36.022 E17.5024
G1 X100.58 Y35.855 E17.52972
G1 X101.055 Y35.547 E17.58322
G1 X101.73 Y35.16 E17.65674
G1 X102.269 Y34.89 E17.71371
G1 X102.754 Y34.677 E17.76377
G1 X103.437 Y34.422 E17.83267
G1 X104.039 Y34.239 E17.89212
G1 X104.22 Y34.169 E17.91046
G1 X104.726 Y33.692 E17.97618
G1 X104.894 Y33.546 E17.99721
G1 X105.374 Y33.163 E18.05524
G1 X105.562 Y33.026 E18.07722
G1 X106.096 Y32.672 E18.13777
G1 X106.391 Y32.495 E18.17028
G1 X106.965 Y32.186 E18.23188
G1 X107.164 Y32.09 E18.25276
G1 X107.826 Y31.81 E18.32069
G1 X108.128 Y31.7 E18.35106
G1 X108.808 Y31.49 E18.41831
G1 X109.125 Y31.409 E18.44923
G1 X109.913 Y31.254 E18.52513
G1 X110.208 Y31.213 E18.55327
G1 X110.897 Y31.151 E18.61865
G1 X111.113 Y31.142 E18.63907
G1 X111.645 Y31.14 E18.68935
G1 X112.193 Y31.165 E18.74119
G1 X112.794 Y31.226 E18.79828
G1 X113.038 Y31.26 E18.82156
G1 X113.69 Y31.381 E18.88422
G1 X114.343 Y31.547 E18.94789
G1 X114.555 Y31.61 E18.96879
G1 X115.197 Y31.835 E19.03308
G1 X115.519 Y31.965 E19.0659
G1 X116.334 Y32.355 E19.15128
G1 X116.631 Y32.521 E19.18343
G1 X117.095 Y32.804 E19.23479
G1 X117.279 Y32.926 E19.25565
G1 X117.762 Y33.276 E19.31202
G1 X117.986 Y33.453 E19.339
G1 X118.429 Y33.833 E19.39415
G1 X118.634 Y34.024 E19.42063
G1 X119.24 Y34.663 E19.50385
G1 X119.631 Y35.147 E19.56265
G1 X119.937 Y35.565 E19.61161
G1 X120.286 Y36.103 E19.67221
G1 X120.44 Y36.366 E19.70101
G1 X120.773 Y37.008 E19.76935
G1 X120.896 Y37.277 E19.79731
G1 X121.162 Y37.945 E19.86525
G1 X121.266 Y38.25 E19.8957
G1 X121.44 Y38.841 E19.95392
G1 X121.519 Y39.16 E19.98498
G1 X121.669 Y39.963 E20.06218
G1 X121.697 Y40.179 E20.08276
G1 X121.745 Y40.685 E20.13079
G1 X121.764 Y41.012 E20.16174
G1 X121.775 Y41.566 E20.21411
G1 X121.749 Y42.158 E20.27011
G1 X121.679 Y42.826 E20.33358
G1 X121.631 Y43.138 E20.36341
G1 X121.488 Y43.832 E20.43037
G1 X121.422 Y44.089 E20.45544
G1 X121.249 Y44.664 E20.51219
G1 X121.051 Y45.205 E20.56663
G1 X121.022 Y45.351 E20.58069
G1 X121.133 Y45.642 E20.61013
G1 X121.389 Y46.454 E20.69058
G1 X121.479 Y46.813 E20.72556
G1 X121.634 Y47.635 E20.80461
G1 X121.668 Y47.897 E20.82957
G1 X121.719 Y48.457 E20.88271
G1 X121.731 Y48.694 E20.90514
G1 X121.737 Y49.273 E20.95986
G1 X121.726 Y49.638 E20.99436
G1 X121.662 Y50.4 E21.06663
G1 X121.628 Y50.647 E21.09019
G1 X121.503 Y51.318 E21.15469
G1 X121.362 Y51.874 E21.20889
G1 X121.302 Y52.08 E21.22917
G1 X121.128 Y52.602 E21.28117
G1 X121.035 Y52.849 E21.30611
G1 X120.834 Y53.33 E21.35537
G1 X120.558 Y53.896 E21.41488
G1 X120.462 Y54.075 E21.43407
G1 X120.125 Y54.641 E21.49632
G1 X119.969 Y54.877 E21.52306
G1 X119.625 Y55.353 E21.57856
G1 X119.427 Y55.605 E21.60884
G1 X119.001 Y56.099 E21.67049
G1 X118.814 Y56.297 E21.69622
G1 X118.238 Y56.842 E21.77116
G1 X118.067 Y56.987 E21.79235
G1 X117.646 Y57.319 E21.84301
G1 X117.43 Y57.476 E21.86825
G1 X116.906 Y57.823 E21.92764
G1 X116.613 Y57.999 E21.95994
G1 X115.957 Y58.348 E22.03016
G1 X115.367 Y58.611 E22.0912
G1 X115.137 Y58.703 E22.11461
G1 X114.647 Y58.878 E22.16378
G1 X114.383 Y58.962 E22.18996
G1 X113.821 Y59.116 E22.24503
G1 X113.6 Y59.167 E22.26646
G1 X112.899 Y59.293 E22.33377
G1 X112.342 Y59.355 E22.38673
G1 X112.095 Y59.374 E22.41014
G1 X111.457 Y59.394 E22.47046
G1 X111.132 Y59.39 E22.50117
G1 X110.471 Y59.352 E22.56374
G1 X109.864 Y59.277 E22.62154
G1 X109.217 Y59.155 E22.68376
G1 X108.62 Y59.004 E22.74195
G1 X108.038 Y58.818 E22.79969
G1 X107.418 Y58.574 E22.86265
G1 X107.152 Y58.455 E22.89019
G1 X106.548 Y58.15 E22.95413
G1 X106.26 Y57.987 E22.98541
G1 X105.668 Y57.613 E23.05158
G1 X105.419 Y57.438 E23.08034
G1 X104.901 Y57.037 E23.14225
G1 X104.358 Y56.548 E23.2113
G1 X103.959 Y56.15 E23.26456
G1 X103.813 Y55.983 E23.28552
G1 X103.097 Y55.747 E23.35676
G1 X102.571 Y55.537 E23.41028
G1 X101.9 Y55.221 E23.48037
G1 X101.446 Y54.975 E23.52917
G1 X100.863 Y54.619 E23.59372
G1 X100.325 Y54.245 E23.65564
G1 X100.129 Y54.097 E23.67885
G1 X99.709 Y53.754 E23.73009
G1 X99.226 Y53.319 E23.79152
G1 X98.865 Y52.964 E23.83937
G1 X98.41 Y52.468 E23.90297
G1 X98.015 Y51.984 E23.96201
G1 X97.661 Y51.492 E24.01929
G1 X97.506 Y51.259 E24.04573
G1 X97.217 Y50.785 E24.0982
G1 X96.871 Y50.135 E24.16778
G1 X96.607 Y49.557 E24.22783
G1 X96.508 Y49.316 E24.25245
G1 X96.334 Y48.847 E24.29972
G1 X96.222 Y48.509 E24.33337
G1 X96.054 Y47.917 E24.39152
G1 X95.933 Y47.381 E24.44345
G1 X95.836 Y46.815 E24.49772
G1 X95.775 Y46.314 E24.54541
G1 X95.727 Y45.615 E24.61162
G1 X95.722 Y44.992 E24.6705
G1 X95.75 Y44.359 E24.73038
G1 X95.799 Y43.821 E24.78143
G1 X95.892 Y43.171 E24.84348
G1 X96.006 Y42.604 E24.89813
G1 X96.195 Y41.888 E24.96811
G1 X96.287 Y41.594 E24.99722
G1 X96.497 Y41.013 E25.0556
G1 X96.632 Y40.684 E25.08921
G0 F4320 X96.956 Y40.817
G1 F1800 X97.206 Y40.277 E25.14544
G1 X97.468 Y39.785 E25.19812
G1 X97.769 Y39.284 E25.25335
G1 X98.09 Y38.805 E25.30784
G1 X98.477 Y38.293 E25.36849
G1 X98.851 Y37.853 E25.42306
G1 X99.335 Y37.343 E25.48951
G1 X99.915 Y36.808 E25.56407
G1 X100.097 Y36.655 E25.58654
G1 X100.547 Y36.308 E25.64024
G1 X100.783 Y36.141 E25.66756
G1 X101.234 Y35.847 E25.71844
G1 X101.891 Y35.471 E25.78997
G1 X102.416 Y35.208 E25.84546
G1 X102.884 Y35.002 E25.89378
G1 X103.544 Y34.755 E25.96038
G1 X104.129 Y34.577 E26.01816
G1 X104.373 Y34.513 E26.042
G1 X104.753 Y34.14 E26.09232
G1 X105.123 Y33.81 E26.13917
G1 X105.58 Y33.446 E26.19438
G1 X105.768 Y33.309 E26.21637
G1 X106.277 Y32.973 E26.274
G1 X106.572 Y32.796 E26.30651
G1 X107.118 Y32.501 E26.36516
G1 X107.317 Y32.405 E26.38604
